X:1
T:Vocalise
%%score 1 2
L:1/8
Q:1/4=50
M:4/4
K:G
V:1 tenor nm="Cello 1"
V:2 bass nm="Cello 2"
V:1
|:"^Lentamente(Molto cantabile)()" z3!mp! (vG/F/ G3) (E/F/ |[M:2/4] GF/E/!>(! FD/!>)!E/) | %2
[M:4/4]!<(! F4-!<)!!>(! F!>)!!<(! (E/D/!<)!!>(! EC/!>)!D/) | %3
!<(! E4-!<)!!>(! E(D/!>)!C/!<(! B,>A,)!<)! | %4
!>(! (B,>C B,2-!>)! B,/)!<(!(C/E/!<)!G/)!>(! (A>B)!>)! | (G3 =F)!>(! E2 (T^D2{^CD)}!>)! | %6
 E4 z"^poco più animato"!<(! (uE2 D)!<)! | ^C4- C!<(!(CDE)!<)! | %8
!>(! ED/E/ F2-!>)! F!<(!(B,/^C/ DE/F/)!<)! |!>(! ^G4- G!>)!!<(!(^E FG)!<)! | %10
 ^G!tenuto!F/!tenuto!G/ A2-!>(! A(GFE)!>)! | F3!>(! (E/^D/!>)! E3)!<(! (B,/^C/!<)! | %12
!<(! ^DE/F/)!<)! =G2- G!>(!(FE=D)!>)! | (D^C/D/) E2- E(D/C/ D!<(!A,/B,/) | %14
 (^CD/E/)!<)! =F2- F!>(!(ED=C)!>)! | B,4 (^A,3 E) |[M:2/4]"^ritenuto"!>(! (F>E) (D/E/^C)!>)! |1 %17
[M:4/4]!>(! B,8!>)! :|2[M:4/4] B,4 z"^poco più mosso" (vF2 E) |: %19
!<(! (^D2!<)!!>(! F2-!>)! F)"_cresc." (F2 E) | (^D2!>(! F2-!>)! F)!<(!(GFE)!<)! | %21
 (=D!>(!EF!>)!D)!p! (B,2-"^poco rit." B,/!<(!^C/^D/!tenuto!A/!<)! |!p! G4) z"^a tempo" (uG2 F) | %23
!<(! (E2!<)!!>(! G2- G)!>)!!<(!(G FE/D/)!<)! | (E2!>(! G2-!>)! G)(AGF) | %25
"^cresc." EFGE C2-!<(! C/(D/!tenuto!E/!tenuto!G/)!<)! |O!>(! A4!>)! B,3 A |!<(! vB6 A2!<)! | %28
 ^G(!tenuto!F/G/)!>(! A2-!>)! A(=GFE) | ^D(!tenuto!=D/!tenuto!^D/)!>(! E2- E (=D2 C)!>)! | %30
[M:2/4]!p!!>(! (B,>A,) (G,A,/F,/)!>)! |1[M:4/4]!p!!>(! E,4!>)!"^*" z!pp! (F2 E) :|2 %32
[M:4/4] E,4 z2!p! (G,A,) ||[M:2/4] B,(A,/B,/) !tenuto!C(B,/C/) |[M:4/4] !breath!D3 (C/D/ E2) F2 | %35
 (G3 A)"_cresc." B4- | B[K:treble]c!>!d!>!e (cB)!>(! (AG/A/)!>)! | (B3 A) !tenuto!G2 (TF2{EF)} | %38
 uE8 |[M:2/4]!p!!>(! E4!>)! |[M:4/4] !fermata!E8 |] %41
V:2
|:!mp! (E,4 D,4) |[M:2/4] C,4 |[M:4/4] B,,4- B,,2 (A,,2 | G,,4) (F,,2 =F,,2) | (E,,4 A,,2) D,,2 | %5
 E,,2 (A,,2 B,,4) | E,2 z!p! (vE/D/ ED/^C/) (uD^A,/B,/) | ^A,2 z!p! (^C/B,/ CB,/A,/) (B,A,/=A,/) | %8
 ^A,2 z (B,/^A,/ B,=A,/^G,/) (A,G,/F,/) | ^E,2 z (B,/A,/ B,A,/^G,/) (A,G,/A,/) | %10
 (^E,2 F,) (^C/^B,/ C4) | z (=C/B,/ !tenuto!C2- C)(B,/^A,/ !tenuto!B,2- | %12
 B,) z z!<(! (B,/^C/!>(! D)!<)! B, (B,=A,)!>)! | (G,A,) B, (_B,/A,/ !tenuto!B,3) (A,/^G,/ | %14
 !tenuto!A,3) (A,,/B,,/ C,4) | (=F,2 E,2) (E,D, ^C,)(=C, |[M:2/4] B,,E,) (^E,F,) |1 %17
[M:4/4] B,,2 z (B,/A,/ B,)(A,/G,/ =F,/^F,/) (G,/F,/) :|2[M:4/4] (B,,3 A,,/B,,/) C,4 |: %19
 A,2 z (C/B,/ C)(B,/A,/ B,A,/B,/) | !tenuto!C3 (A,/B,/ C3) (B,/A,/ | %21
 B,3) (A,/G,/ !tenuto!A,3) (G,/F,/ | G,3) (E/D/ E)(D/^C/ D^A,/B,/) | ^A,3 (E/D/ E)(D/^C/ DA,/B,/) | %24
 ^A,3 (=C/=B,/ C3) (B,/^A,/ | B,)(G,/=A,/) _B,4- B,(C,/D,/ | %26
 E,)(^D,/=D,/ ^D,)(=B,,/C,/ !tenuto!=D,2- D,/)(^D,/E,/^E,/) | %27
 (F,=F,/=E,/) (F,=D,/^D,/) E,2 ^D,(B,,/C,/) | (=D,C,/B,,/) C,2- C, z z (G,/F,/) | %29
 (B,A,) G,4 F,(=F,/^F,/) |[M:2/4] (G,A,) (^A,B,) |1[M:4/4] B,3 (A,/B,/ C4) :|2[M:4/4] z2 (E2 D4) || %33
[M:2/4] C4 |[M:4/4] B,4- B,2 (A,2 | G,4) (F,2 =F,2) | E,4- E,2 D,2 | E,2 (A,G,/A,/) B,4 | %38
 (uC/B,/C/D/) (E/=F/E/D/ C)(D/C/ _B,/=B,/)(C/B,/ |[M:2/4]!pp! A,/)(^F,/G,/A,/) (B,/C/B,) | %40
[M:4/4] uE,>(B, !fermata!E6) |] %41

